X:245
T: Andy McGann's Jig
C: Andy McGann
L: 1/8
M: 6/8
R: jig
Q: 1/4=165
K: D
A, | DEF EDB, | DFA dcd | edB AFD | F/G/AF ECA, |
DEF EDB, | DFA dcd | edB AFD | EDC D2 :|
A | dcd ede | fdB AFA | B/c/dB AFD | FEE EFA |
dcd ede | fdB AFA | B/c/dB AFE | FDD D2A |
d2f ede | fdB AFA | dcB AFD | CEC A,CE |
ABc d2f | edB AFD | FEF DEF | EDC D2 ||
